src/assets/images/free-demat-compaign/income-proof-to-open-a-demat-account.svg

<svg width="109" height="81" viewBox="0 0 109 81" fill="none" xmlns="http://www.w3.org/2000/svg">
<path d="M108.156 26.1131C107.924 25.6314 107.691 25.1663 107.392 24.7842C106.628 23.7709 105.515 23.2227 104.086 23.1231C103.787 23.1065 103.488 23.1065 103.156 23.1231C102.575 23.1231 101.993 23.1231 101.412 23.1231C94.6179 23.1231 87.8405 23.1231 81.0465 23.1231C56.4286 23.1231 30.9635 23.1231 5.91362 23.0898H5.8804C2.70764 23.0898 0.930233 24.153 0 26.6281V76.4785C0.465116 77.5915 0.89701 78.638 1.86047 79.1031C3.02326 79.6513 4.03654 79.9503 4.90033 79.9503C13.4884 80.0001 22.2259 80.0001 30.6811 79.9835C38.3887 79.9835 46.0797 79.9835 53.7874 79.9835C58.9701 79.9835 64.2027 79.9835 69.4684 79.9835C80.4817 79.9835 91.6279 79.9835 102.658 80.0334H102.708C105.797 80.0334 107.508 78.9702 108.405 76.4619V26.6613C108.306 26.4785 108.223 26.2958 108.123 26.1131H108.156ZM35.299 74.4354C31.5947 74.4354 27.9236 74.4354 24.3023 74.4354C20.6811 74.4354 16.7608 74.4354 13.1229 74.4354C11.7608 74.4354 10.8804 73.6214 10.7143 72.2094C10.4651 70.2825 9.73422 69.535 7.82392 69.3025C6.31229 69.1197 5.56478 68.2227 5.56478 66.5948C5.56478 62.957 5.56478 59.3191 5.56478 55.6978V51.628V47.6247C5.56478 43.9702 5.56478 40.3158 5.56478 36.6613C5.56478 34.7676 6.27907 33.9702 8.20598 33.7543C9.5515 33.6048 10.5316 32.6247 10.6977 31.2626C10.9302 29.3191 11.6944 28.638 13.6213 28.638C20.3654 28.638 27.4917 28.638 34.8339 28.638C36.495 28.638 37.5581 29.4021 37.7409 30.731C37.8239 31.3955 37.6412 32.0433 37.2259 32.5251C36.7608 33.0566 36.0797 33.3722 35.2824 33.3722C33.9535 33.3888 32.608 33.3888 31.3123 33.3722C30.7807 33.3722 30.2492 33.3722 29.7176 33.3722C28.5714 33.3722 27.4419 33.3722 26.2957 33.3722C22.8571 33.3722 19.2857 33.3722 15.7973 33.3556C15.1993 33.3556 15.0498 33.4885 14.8837 33.9038C14.1528 35.7809 12.7409 37.1762 10.814 37.9403C10.4153 38.0898 10.3488 38.2227 10.3488 38.6878C10.3654 47.0101 10.3654 55.6812 10.3488 64.452C10.3488 64.9005 10.4319 65.0001 10.7641 65.1164C12.7076 65.8805 14.1528 67.2925 14.9003 69.2194C15.0498 69.6015 15.1495 69.7011 15.7309 69.7011H15.7475C20.6645 69.6845 25.6811 69.7011 30.5149 69.7011H34.3854C34.4684 69.7011 34.5515 69.7011 34.6346 69.7011C34.9169 69.7011 35.2159 69.7011 35.5316 69.7344C36.8771 69.9005 37.8239 70.9304 37.7741 72.1928C37.7243 73.5217 36.711 74.452 35.3322 74.452L35.299 74.4354ZM25.7475 51.5616C25.7475 53.1065 25.1329 54.5682 24.0365 55.648C22.9402 56.7277 21.4784 57.3257 19.9169 57.3257H19.8671C16.6944 57.3091 14.1196 54.7011 14.1196 51.5284C14.1196 49.9835 14.7342 48.5217 15.8638 47.4088C16.9601 46.329 18.4053 45.731 19.9169 45.731C21.4286 45.731 19.9668 45.731 20 45.731C23.1728 45.7809 25.7475 48.3888 25.7309 51.545L25.7475 51.5616ZM54.2027 74.452H54.1362C41.495 74.4188 31.2458 64.1031 31.2791 51.4619C31.2957 45.3656 33.7043 39.6347 38.0731 35.2991C42.4086 30.9968 48.1561 28.638 54.2359 28.638H54.3189C66.9767 28.6878 77.2259 39.0035 77.1761 51.6613C77.1263 64.2526 66.8272 74.4686 54.2027 74.4686V74.452ZM102.89 55.7477C102.89 59.2859 102.89 62.8075 102.89 66.3457C102.89 68.3556 102.292 69.0367 100.266 69.3357C98.8206 69.5516 97.907 70.4985 97.7575 71.9603C97.5748 73.7045 96.7608 74.452 95.0498 74.452C91.495 74.452 87.9236 74.452 84.3688 74.452C80.814 74.452 77.0432 74.452 73.4219 74.452C72.5581 74.452 71.8439 74.1862 71.3621 73.7045C70.9468 73.2892 70.7143 72.7244 70.7309 72.0932C70.7309 70.6812 71.8272 69.7178 73.4219 69.7178C79.9169 69.7178 86.2625 69.7011 92.608 69.7178H92.6412C93.3056 69.7178 93.4884 69.6015 93.6877 69.0865C94.402 67.2759 95.7641 65.9304 97.6246 65.2161C98.0565 65.05 98.1728 64.9171 98.1728 64.3025C98.1562 55.8805 98.1562 47.2759 98.1728 38.7377C98.1728 38.2393 98.0897 38.0898 97.6412 37.9237C95.7475 37.1596 94.3522 35.7477 93.6047 33.854C93.4552 33.4719 93.3389 33.3556 92.7741 33.3556C87.8239 33.3722 82.8073 33.3556 77.9402 33.3556H74.0365C73.9535 33.3556 73.8538 33.3556 73.7708 33.3556C73.4884 33.3556 73.1894 33.3556 72.8738 33.3224C71.6611 33.1397 70.8804 32.3423 70.7807 31.1795C70.6811 29.9669 71.3621 29.0201 72.608 28.6878C72.9734 28.5882 73.3389 28.5882 73.6545 28.5882C73.7209 28.5882 73.7874 28.5882 73.8372 28.5882C80.7973 28.5882 87.7575 28.5882 94.7342 28.5882C96.8106 28.5882 97.5249 29.2194 97.8073 31.2792C97.99 32.6081 98.9867 33.5716 100.349 33.7211C102.176 33.9204 102.924 34.751 102.924 36.5782C102.924 40.1829 102.924 43.7875 102.924 47.3922V55.7144L102.89 55.7477ZM82.7076 51.5782C82.7076 50.0334 83.3056 48.555 84.4186 47.442C85.515 46.329 86.9767 45.731 88.505 45.731H88.5216C90.0665 45.731 91.5282 46.3623 92.6246 47.4752C93.7209 48.5882 94.3189 50.0666 94.3023 51.6114C94.2691 54.7676 91.6611 57.3091 88.4884 57.3091C86.8937 57.3091 85.4651 56.6613 84.4186 55.6148C83.3721 54.5682 82.7243 53.1397 82.7076 51.5616V51.5782Z" fill="url(#paint0_linear_258_504)"/>
<path d="M102.574 18.3717C102.541 18.3717 102.508 18.3717 102.474 18.3717C102.375 18.3717 102.292 18.3717 102.192 18.3717C102.092 18.3717 102.043 18.3717 101.976 18.3717C101.91 18.3717 101.843 18.3717 101.793 18.3717H37.8066C41.9096 17.7903 46.0292 17.2089 50.1322 16.6275C57.0757 15.6474 64.0027 14.6508 70.9462 13.6707C78.4379 12.6076 86.0458 11.5112 93.4046 10.4647L96.81 9.98299C98.0724 9.80027 99.3017 10.0993 100.265 10.8302C101.212 11.5445 101.827 12.591 101.993 13.8036C102.092 14.4847 102.175 15.1823 102.258 15.8634C102.358 16.6441 102.458 17.4581 102.574 18.272C102.574 18.3219 102.574 18.3717 102.574 18.4049V18.3717Z" fill="url(#paint1_linear_258_504)"/>
<path d="M92.5752 5.63123C92.4091 5.76412 91.5951 5.8804 90.8642 5.98007C82.542 7.17608 74.2363 8.35548 65.9141 9.53488C59.2695 10.4817 52.6084 11.4286 45.9639 12.3754C43.9705 12.6578 41.9772 12.9568 39.9838 13.2392C39.7513 13.2724 39.5021 13.3056 39.2695 13.3389C49.934 10.3488 60.5984 7.37542 71.2463 4.38538L85.9639 0.282392C86.6449 0.0830565 87.2928 0 87.8742 0C88.4556 0 89.3858 0.182724 90.0004 0.531561C91.0635 1.14618 91.8277 2.29236 92.2429 3.92027C92.4423 4.66777 92.625 5.43189 92.5752 5.63123Z" fill="url(#paint2_linear_258_504)"/>
<path d="M54.3027 33.3887H54.2362C49.4024 33.3887 44.8343 35.2824 41.3957 38.7043C37.9406 42.1262 36.0469 46.6777 36.0469 51.5116C36.0469 56.3621 37.924 60.9302 41.3625 64.3687C44.801 67.8073 49.3691 69.701 54.2196 69.701C59.0701 69.701 63.6549 67.8073 67.0768 64.3854C70.5153 60.9468 72.409 56.3953 72.409 51.5448C72.409 41.5614 64.2695 33.4219 54.2861 33.3887H54.3027Z" fill="url(#paint3_linear_258_504)"/>
<path d="M89.5686 51.5279C89.5686 51.7937 89.4689 52.0595 89.2862 52.2588C89.0869 52.4582 88.8377 52.5744 88.5553 52.5744C87.9739 52.5744 87.5088 52.1426 87.4922 51.5778C87.4922 51.0296 87.9573 50.5313 88.5055 50.5146H88.5221C88.7713 50.5146 89.0204 50.6309 89.2198 50.8136C89.4191 51.013 89.552 51.2788 89.552 51.5445L89.5686 51.5279Z" fill="url(#paint4_linear_258_504)"/>
<defs>
<linearGradient id="paint0_linear_258_504" x1="54.2027" y1="23.0898" x2="54.2027" y2="80.0334" gradientUnits="userSpaceOnUse">
<stop stop-color="#8EF8AA"/>
<stop offset="1" stop-color="#00EFD1"/>
</linearGradient>
<linearGradient id="paint1_linear_258_504" x1="70.1904" y1="9.93066" x2="70.1904" y2="18.4049" gradientUnits="userSpaceOnUse">
<stop stop-color="#8EF8AA"/>
<stop offset="1" stop-color="#00EFD1"/>
</linearGradient>
<linearGradient id="paint2_linear_258_504" x1="65.9265" y1="0" x2="65.9265" y2="13.3389" gradientUnits="userSpaceOnUse">
<stop stop-color="#8EF8AA"/>
<stop offset="1" stop-color="#00EFD1"/>
</linearGradient>
<linearGradient id="paint3_linear_258_504" x1="54.2279" y1="33.3887" x2="54.2279" y2="69.701" gradientUnits="userSpaceOnUse">
<stop stop-color="#8EF8AA"/>
<stop offset="1" stop-color="#00EFD1"/>
</linearGradient>
<linearGradient id="paint4_linear_258_504" x1="88.5304" y1="50.5146" x2="88.5304" y2="52.5744" gradientUnits="userSpaceOnUse">
<stop stop-color="#8EF8AA"/>
<stop offset="1" stop-color="#00EFD1"/>
</linearGradient>
</defs>
</svg>

<svg width="109" height="81" fill="none" xmlns="http://www.w3.org/2000/svg"><path d="M108.156 26.113c-.232-.482-.465-.947-.764-1.329-.764-1.013-1.877-1.561-3.306-1.66a8.684 8.684 0 0 0-.93 0h-22.11c-24.617 0-50.083 0-75.132-.034H5.88c-3.172 0-4.95 1.063-5.88 3.538v49.85c.465 1.114.897 2.16 1.86 2.625 1.163.548 2.177.847 3.04.847 8.588.05 17.326.05 25.781.034h38.787c11.014 0 22.16 0 33.19.05h.05c3.089 0 4.8-1.064 5.697-3.572v-49.8c-.099-.183-.182-.366-.282-.549h.033zM35.299 74.435H13.122c-1.361 0-2.242-.814-2.408-2.226-.249-1.927-.98-2.674-2.89-2.907-1.512-.182-2.26-1.08-2.26-2.707V36.66c0-1.893.715-2.69 2.642-2.907 1.346-.15 2.326-1.13 2.492-2.491.232-1.944.996-2.625 2.923-2.625h21.213c1.661 0 2.724.764 2.907 2.093.083.664-.1 1.312-.515 1.794-.465.532-1.146.847-1.944.847a158.25 158.25 0 0 1-3.97 0h-5.016c-3.439 0-7.01 0-10.499-.016-.598 0-.747.133-.913.548-.731 1.877-2.143 3.272-4.07 4.036-.399.15-.465.283-.465.748.016 8.322.016 16.993 0 25.764 0 .448.083.548.415.664 1.944.764 3.389 2.177 4.136 4.103.15.383.25.482.83.482h.018c4.917-.016 9.933 0 14.767 0h4.12c.282 0 .58 0 .897.033 1.345.166 2.292 1.196 2.242 2.459-.05 1.329-1.063 2.259-2.442 2.259l-.033-.017zm-9.552-22.873a5.716 5.716 0 0 1-1.71 4.086 5.831 5.831 0 0 1-4.12 1.678h-.05c-3.173-.017-5.747-2.625-5.747-5.798 0-1.544.614-3.006 1.744-4.12a5.763 5.763 0 0 1 4.053-1.677H20c3.173.05 5.747 2.658 5.73 5.814l.017.017zm28.456 22.89h-.067c-12.641-.033-22.89-10.349-22.857-22.99.017-6.096 2.425-11.827 6.794-16.163a22.814 22.814 0 0 1 16.163-6.661h.083c12.658.05 22.907 10.366 22.857 23.023-.05 12.592-10.349 22.808-22.973 22.808v-.017zm48.687-18.704v10.598c0 2.01-.598 2.69-2.624 2.99-1.445.216-2.359 1.163-2.509 2.624-.182 1.745-.996 2.492-2.707 2.492H73.422c-.864 0-1.578-.266-2.06-.748a2.165 2.165 0 0 1-.631-1.61c0-1.413 1.096-2.376 2.69-2.376 6.496 0 12.841-.017 19.187 0h.033c.665 0 .847-.117 1.047-.632.714-1.81 2.076-3.156 3.937-3.87.431-.166.548-.299.548-.913-.017-8.422-.017-17.027 0-25.565 0-.499-.083-.648-.532-.814-1.894-.764-3.289-2.176-4.036-4.07-.15-.382-.266-.498-.83-.498-4.951.016-9.968 0-14.835 0H73.771c-.283 0-.582 0-.897-.034-1.213-.182-1.994-.98-2.093-2.143-.1-1.212.581-2.159 1.827-2.491.365-.1.73-.1 1.046-.1h21.08c2.077 0 2.79.631 3.073 2.691.183 1.33 1.18 2.293 2.542 2.442 1.827.2 2.575 1.03 2.575 2.857v19.136l-.034.034zm-20.182-4.17a5.82 5.82 0 0 1 1.71-4.136 5.705 5.705 0 0 1 4.087-1.711h.017c1.544 0 3.006.631 4.103 1.744a5.788 5.788 0 0 1 1.677 4.136c-.033 3.157-2.64 5.698-5.814 5.698a5.724 5.724 0 0 1-4.07-1.694 5.8 5.8 0 0 1-1.71-4.053v.016z" fill="url(#a)"/><path d="M102.574 18.372H37.807c4.103-.582 8.222-1.163 12.325-1.744 6.944-.98 13.87-1.977 20.814-2.957 7.492-1.063 15.1-2.16 22.459-3.206l3.405-.482c1.262-.183 2.492.116 3.455.847a4.432 4.432 0 0 1 1.728 2.974c.099.68.182 1.378.265 2.06.1.78.2 1.594.316 2.408v.133-.033z" fill="url(#b)"/><path d="M92.575 5.631c-.166.133-.98.25-1.71.35-8.323 1.195-16.629 2.374-24.95 3.554l-19.951 2.84c-1.993.283-3.987.582-5.98.864l-.715.1c10.665-2.99 21.33-5.964 31.977-8.954L85.964.282A6.824 6.824 0 0 1 87.874 0c.582 0 1.512.183 2.126.532 1.064.614 1.828 1.76 2.243 3.388.2.748.382 1.512.332 1.711z" fill="url(#c)"/><path d="M54.303 33.389h-.067c-4.834 0-9.402 1.893-12.84 5.315-3.455 3.422-5.35 7.974-5.35 12.808 0 4.85 1.878 9.418 5.316 12.857A18.07 18.07 0 0 0 54.22 69.7c4.85 0 9.435-1.894 12.857-5.316 3.438-3.438 5.332-7.99 5.332-12.84 0-9.984-8.14-18.123-18.123-18.156h.017z" fill="url(#d)"/><path d="M89.569 51.528c0 .266-.1.532-.283.73-.2.2-.448.316-.73.316-.582 0-1.047-.431-1.064-.996 0-.548.465-1.047 1.013-1.063h.017c.25 0 .498.116.698.299.2.199.332.465.332.73l.017-.016z" fill="url(#e)"/><defs><linearGradient id="a" x1="54.203" y1="23.09" x2="54.203" y2="80.033" gradientUnits="userSpaceOnUse"><stop stop-color="#8EF8AA"/><stop offset="1" stop-color="#00EFD1"/></linearGradient><linearGradient id="b" x1="70.19" y1="9.931" x2="70.19" y2="18.405" gradientUnits="userSpaceOnUse"><stop stop-color="#8EF8AA"/><stop offset="1" stop-color="#00EFD1"/></linearGradient><linearGradient id="c" x1="65.927" y1="0" x2="65.927" y2="13.339" gradientUnits="userSpaceOnUse"><stop stop-color="#8EF8AA"/><stop offset="1" stop-color="#00EFD1"/></linearGradient><linearGradient id="d" x1="54.228" y1="33.389" x2="54.228" y2="69.701" gradientUnits="userSpaceOnUse"><stop stop-color="#8EF8AA"/><stop offset="1" stop-color="#00EFD1"/></linearGradient><linearGradient id="e" x1="88.53" y1="50.515" x2="88.53" y2="52.574" gradientUnits="userSpaceOnUse"><stop stop-color="#8EF8AA"/><stop offset="1" stop-color="#00EFD1"/></linearGradient></defs></svg>
